X:1
T:I furuskogen
T:W Peterson-Berger (1867-1942)
T:I furuskogen
T:©CPDL Edition may be freely distributed, duplicated, performed and recorded PA Aglert
T:©CPDL Edition may be freely distributed, duplicated, performed and recorded PA Aglert
T:©CPDL Edition may be freely distributed, duplicated, performed and recorded PA Aglert
T:©CPDL Edition may be freely distributed, duplicated, performed and recorded PA Aglert
T:©CPDL Edition may be freely distributed, duplicated, performed and recorded PA Aglert
T:©CPDL Edition may be freely distributed, duplicated, performed and recorded PA Aglert
C:W Peterson-Berger (1867-1942)
Z:©CPDL Edition may be freely distributed, duplicated, performed and recorded
Z:PA Aglert
%%score [ 1 2 3 4 ]
L:1/8
Q:1/4=100
M:4/4
K:Ab
V:1 treble nm="S"
V:2 treble nm="A"
V:3 treble-8 nm="T"
V:4 bass nm="B"
V:1
"^Moderato e cantibile"!p! E | EEEE EEEE | EEEE EEEE | EEEE EEEE | EEEE EEEE | EEEE EEEE | %6
w: Det|är en ren- het i din luft, en|troll- dom i den vil- da doft. som|ge- nom sko- gen ström- mar, ge- nom|fu- ru- sko- gen ström- mar, ja det|är en ren- het i din luft, en|
 EEEE EEEE | EEEE EEEE | EEEE EEEE | EEEE EEEE | EEEE EEEE |"^cresc." EEEE EEEE |!mf! GGGG GGGG | %13
w: troll- dom i den vil- da doft. som|ge- nom sko- gen ström- mar, ge- nom|fu- ru- sko- gen ström- mar, ja det|är en ren- het i din luft, en|troll- dom i den vil- da doft. som|ge- nom sko- gen ström- mar, ge- nom|fu- ru- sko- gen ström- mar, ja det|
 AAAA AAAA | GGGG G3!mf! G | B3 c A3 F | G3 A F3 G | A6 B2 | B6 z2 | z!mp! e e3 e e2- | %20
w: är en ren- het i din luft, en|troll- dom i den doft. där|bäck- en dan- sar|glad och fri, så|glad och|fri,|och äl- ven gli-|
 ee e3!<(! A AB!<)! |!mf! c3 A A2!>(! G2!>)! | F2 E3 z z!p! E |"^rit." E3 C C2 C2 | %24
w: * der tyst för- bi i|dju- pa all- vars-|dröm- mar, i|dju- pa all- vars-|
!>(! !fermata!D8!>)! | !fermata!C8 |] %26
w: dröm-|mar.|
V:2
!p! C | CCCC CCCC | CCCC CCCC | CCCC CCCC | CCCC CCCC | CCCC CCCC | DDDD DDDD | CCCC CCCC | %8
w: Det|är en ren- het i din luft, en|troll- dom i den vil- da doft. som|ge- nom sko- gen ström- mar, ge- nom|fu- ru- sko- gen ström- mar, ja det|är en ren- het i din luft, en|troll- dom i den vil- da doft. som|ge- nom sko- gen ström- mar, ge- nom|
 CCCC CCCC | CCCC CCCC | DDDD DDDD |"^cresc." CCCC CCCC |!mf! EEEE EEEE | CCCC =DDDD | %14
w: fu- ru- sko- gen ström- mar, ja det|är en ren- het i din luft, en|troll- dom i den vil- da doft. som|ge- nom sko- gen ström- mar, ge- nom|fu- ru- sko- gen ström- mar, ja det|är en ren- het i din luft, en|
 EEEE E3!mf! E | !courtesy!_D3 E C3 D | B,3 C D3 B, | C6 F2 | G6 z2 | z!mp! E E3 E E2- | %20
w: troll- dom i den doft. där|bäck- en dan- sar|glad och fri, så|glad och|fri,|och äl- ven gli-|
 EE E3!<(! F FF!<)! |!mf! F3 F =E2!>(! E2!>)! | F2 D3 z z!p! D |"^rit." C3 A, A,2 A,2 | %24
w: * der tyst för- bi i|dju- pa all- vars-|dröm- mar, i|dju- pa all- vars-|
!>(! !fermata!G,8!>)! | !fermata!A,8 |] %26
w: dröm-|mar.|
V:3
 z | z8 | z4 z2 z E | A3 B G3 E | F3 G E4- | E8- | E6 z!mp! E | A3 B G3 E | F3 G E4- | E8- | %10
w: ||Det|är en ren- het|i din luft,|_|* en|troll- dom i den|vil- da doft.|_|
 E6 z!mf! E |"^cresc." A3 c (BAG)A | B8- | B8 | B4- B3 z | z!mf! e e3 e e2- | ee e3 e e2- | %17
w: * som|ge- nom sko- * * gen|ström-||mar, _|där bäck- en dan-|* sar glad och fri,|
 e EAc ef=dB | e4- e!mp! EGA | B3 c A3 F | G3 A F3!<(! G!<)! |!mf! A3 c B2!>(! B2!>)! | %22
w: _ där bäck- en dan- sar glad och|fri, _ och äl- ven|gli- der tyst, så|tyst för- bi i|dju- pa all- vars-|
 A2 G3 z z!p! G |"^rit." A3 E E2 E2 |!>(! !fermata!_F8!>)! | !fermata!E8 |] %26
w: dröm- mar, i|dju- pa all- vars-|dröm-|mar.|
V:4
 z | z8 | z8 | z8 | z8 | z!mf!!<(! A,,C,E, A,!<)!B,G,E, | F,4-!>(! G,4-!>)! | A,2 z2 z4 | z8 | %9
w: |||||Det är en ren- het i din|luft, _|_||
 z!mf!!<(! A,,C,E, A,B,!<)!G,E, | F,4-!>(! G,4-!>)! |"^cresc." A,2 z2 z4 | z!f! B,,E,G, B,2 G,2 | %13
w: en troll- dom i den vil- da|doft. _|_|som ge- nom sko- gen|
 F,4!>(! B,,4!>)! | E,4- E,3 z | z!mf! E, E,3 E, E,2- | E,E, E,3 E, E,2- | E,8- | %18
w: ström- *|mar, _|där bäck- en dan-|* sar glad och fri,|_|
 E, B,G,B,, E,2 z!mp! C, | D,3 E, C,3 D, | B,,3 C, D,3!<(! D,!<)! |!mf! C,3 C, C,2!>(! C,2!>)! | %22
w: * så glad och fri, och|äl- ven gli- der|tyst för- bi i|dju- pa all- vars-|
 D,2 B,,3 z z!p! B,, |"^rit." A,,3 A,, A,,2 A,,2 |!>(! !fermata!A,,8!>)! | !fermata!A,,8 |] %26
w: dröm- mar, i|dju- pa all- vars-|dröm-|mar.|

